resources/icons/wallets/atomic.svg

<svg viewBox="0 0 214 214" fill="none" xmlns="http://www.w3.org/2000/svg">
<rect width="214" height="214" rx="8" fill="#E5F0F8"/>
<path fill-rule="evenodd" clip-rule="evenodd" d="M46.8672 167.319L84.5379 65.8091C89.3179 53.9577 98.2298 47.2491 110.077 47.0551V47.0508L110.342 47.0519L110.607 47.0508V47.0551C122.454 47.2491 131.366 53.9577 136.146 65.8091L173.817 167.319L150.49 159.339L118.309 72.6258C116.351 67.83 114.089 66.1032 110.342 66.0272C106.594 66.1032 104.333 67.83 102.374 72.6258L70.1942 159.339L46.8672 167.319ZM126.733 128.666C126.733 137.533 119.494 144.721 110.563 144.721C101.633 144.721 94.3934 137.533 94.3934 128.666C94.3934 119.799 101.633 112.611 110.563 112.611C119.494 112.611 126.733 119.799 126.733 128.666Z" fill="#3692FE"/>
</svg>

<svg viewBox="0 0 214 214" fill="none" xmlns="http://www.w3.org/2000/svg"><rect width="214" height="214" rx="8" fill="#E5F0F8"/><path fill-rule="evenodd" clip-rule="evenodd" d="m46.867 167.319 37.67-101.51c4.78-11.851 13.693-18.56 25.54-18.754v-.004h.53v.004c11.847.194 20.759 6.903 25.539 18.754l37.671 101.51-23.327-7.98-32.181-86.713c-1.958-4.796-4.22-6.523-7.967-6.599-3.748.076-6.009 1.803-7.968 6.599l-32.18 86.713-23.327 7.98Zm79.866-38.653c0 8.867-7.239 16.055-16.17 16.055-8.93 0-16.17-7.188-16.17-16.055s7.24-16.055 16.17-16.055c8.931 0 16.17 7.188 16.17 16.055Z" fill="#3692FE"/></svg>
